svgs/garanti_bbva.svg

<svg xmlns="http://www.w3.org/2000/svg" viewBox="0 0 192 192"><path d="M75.954 175.761c-4.123-1.084-7.686-4.541-10.525-10.213-1.099-2.195-1.998-4.343-1.998-4.772 0-.438 1.113-1.621 2.527-2.688 4.352-3.283 13.652-12.679 18.442-18.631 7.937-9.863 14.667-20.696 19.079-30.71l1.914-4.345.598 2.808c.388 1.823.604 5.965.617 11.815.017 7.97-.114 9.695-1.136 14.975-2.183 11.281-6.327 23.542-10.15 30.029-2.388 4.052-7.255 8.93-10.453 10.475-2.677 1.294-6.646 1.854-8.915 1.257Zm-20.212-23.536c-6.481-4.007-11.3-10.246-12.515-16.203-.889-4.354.303-9.506 3.275-14.15 5.857-9.157 21.805-19.136 36.586-22.894 3.948-1.003 5.711-1.207 10.662-1.233 3.262-.017 6.66.124 7.551.314l1.62.344-2.165 4.635c-7.198 15.416-17.126 29.407-28.72 40.477-3.963 3.784-12.448 10.712-13.026 10.636-.106-.013-1.577-.88-3.268-1.926Zm72.061.681c-3.208-.827-6.304-3.496-8.061-6.948-1.237-2.432-2.628-7.201-3.428-11.749-.784-4.462-1.358-26.739-.818-31.779l.315-2.941 3.372 3.507c7.412 7.708 14.1 20.292 18.946 35.647 1.392 4.411 1.399 4.483.714 6.838-.873 3.004-2.809 5.702-4.756 6.626-1.896.9-4.573 1.24-6.284.799Zm13.644-20.594c-4.04-11.881-10.603-23.278-17.875-31.041l-3.666-3.913 2.732.309c9.321 1.054 20.244 8.93 24.595 17.733 1.443 2.92 1.643 3.734 1.788 7.3.126 3.107-.031 4.628-.695 6.727-.836 2.647-3.689 8.22-4.447 8.688-.209.129-1.303-2.482-2.432-5.803Zm-23.19-42.96c-.176-.182 1.612-2.23 3.973-4.552 9.333-9.18 16.155-19.826 20.304-31.684.803-2.296 1.54-4.272 1.637-4.391.373-.458 2.771 2.957 3.597 5.123 1.228 3.218 1.506 6.078.912 9.374-1.833 10.169-11.387 21.9-20.438 25.093-2.675.944-9.403 1.643-9.985 1.037Zm-34.614-.511c-14.113-1.51-28.819-9.165-35.446-18.452-6.515-9.13-6.931-18.954-1.127-26.609 1.956-2.58 5.894-5.648 9.607-7.484l2.693-1.331 4.337 2.85c15.29 10.047 28.066 24.353 36.33 40.679 3.939 7.783 3.882 7.262.911 8.399-4.681 1.791-11.546 2.564-17.305 1.948Zm29.701-4.173c-.984-4.805-.193-21.895 1.46-31.561 2.512-14.69 7.57-22.4 14.692-22.4 4.33 0 8.4 4.769 9.587 11.234.451 2.461.395 2.952-.732 6.371-2.771 8.405-7.656 17.817-12.872 24.798-3.089 4.134-7.786 9.292-10.21 11.212l-1.717 1.36Zm-9.351-9.061C96.299 59.639 85.312 46.216 71.56 35.982c-2.175-1.619-4.813-3.482-5.862-4.14-1.685-1.057-1.873-1.334-1.614-2.374 1.126-4.532 6.132-11.227 9.349-12.504 4.095-1.626 8.257-1.202 13.02 1.327 3.308 1.756 8.946 7.59 11.362 11.756 5.213 8.991 8.254 21.042 9.066 35.922.297 5.429 0 13.707-.509 14.216-.064.064-1.135-1.996-2.379-4.578Z"/></svg>

<svg
    xmlns="http://www.w3.org/2000/svg"
    viewBox="0 0 192 192"
    id="vector">
    <path
        id="path"
        d="M 75.954 175.761 C 71.831 174.677 68.268 171.22 65.429 165.548 C 64.33 163.353 63.431 161.205 63.431 160.776 C 63.431 160.338 64.544 159.155 65.958 158.088 C 70.31 154.805 79.61 145.409 84.4 139.457 C 92.337 129.594 99.067 118.761 103.479 108.747 L 105.393 104.402 L 105.991 107.21 C 106.379 109.033 106.595 113.175 106.608 119.025 C 106.625 126.995 106.494 128.72 105.472 134 C 103.289 145.281 99.145 157.542 95.322 164.029 C 92.934 168.081 88.067 172.959 84.869 174.504 C 82.192 175.798 78.223 176.358 75.954 175.761 Z M 55.742 152.225 C 49.261 148.218 44.442 141.979 43.227 136.022 C 42.338 131.668 43.53 126.516 46.502 121.872 C 52.359 112.715 68.307 102.736 83.088 98.978 C 87.036 97.975 88.799 97.771 93.75 97.745 C 97.012 97.728 100.41 97.869 101.301 98.059 L 102.921 98.403 L 100.756 103.038 C 93.558 118.454 83.63 132.445 72.036 143.515 C 68.073 147.299 59.588 154.227 59.01 154.151 C 58.904 154.138 57.433 153.271 55.742 152.225 Z M 127.803 152.906 C 124.595 152.079 121.499 149.41 119.742 145.958 C 118.505 143.526 117.114 138.757 116.314 134.209 C 115.53 129.747 114.956 107.47 115.496 102.43 L 115.811 99.489 L 119.183 102.996 C 126.595 110.704 133.283 123.288 138.129 138.643 C 139.521 143.054 139.528 143.126 138.843 145.481 C 137.97 148.485 136.034 151.183 134.087 152.107 C 132.191 153.007 129.514 153.347 127.803 152.906 Z M 141.447 132.312 C 137.407 120.431 130.844 109.034 123.572 101.271 L 119.906 97.358 L 122.638 97.667 C 131.959 98.721 142.882 106.597 147.233 115.4 C 148.676 118.32 148.876 119.134 149.021 122.7 C 149.147 125.807 148.99 127.328 148.326 129.427 C 147.49 132.074 144.637 137.647 143.879 138.115 C 143.67 138.244 142.576 135.633 141.447 132.312 Z M 118.257 89.352 C 118.081 89.17 119.869 87.122 122.23 84.8 C 131.563 75.62 138.385 64.974 142.534 53.116 C 143.337 50.82 144.074 48.844 144.171 48.725 C 144.544 48.267 146.942 51.682 147.768 53.848 C 148.996 57.066 149.274 59.926 148.68 63.222 C 146.847 73.391 137.293 85.122 128.242 88.315 C 125.567 89.259 118.839 89.958 118.257 89.352 Z M 83.643 88.841 C 69.53 87.331 54.824 79.676 48.197 70.389 C 41.682 61.259 41.266 51.435 47.07 43.78 C 49.026 41.2 52.964 38.132 56.677 36.296 L 59.37 34.965 L 63.707 37.815 C 78.997 47.862 91.773 62.168 100.037 78.494 C 103.976 86.277 103.919 85.756 100.948 86.893 C 96.267 88.684 89.402 89.457 83.643 88.841 Z M 113.344 84.668 C 112.36 79.863 113.151 62.773 114.804 53.107 C 117.316 38.417 122.374 30.707 129.496 30.707 C 133.826 30.707 137.896 35.476 139.083 41.941 C 139.534 44.402 139.478 44.893 138.351 48.312 C 135.58 56.717 130.695 66.129 125.479 73.11 C 122.39 77.244 117.693 82.402 115.269 84.322 L 113.552 85.682 Z M 103.993 75.607 C 96.299 59.639 85.312 46.216 71.56 35.982 C 69.385 34.363 66.747 32.5 65.698 31.842 C 64.013 30.785 63.825 30.508 64.084 29.468 C 65.21 24.936 70.216 18.241 73.433 16.964 C 77.528 15.338 81.69 15.762 86.453 18.291 C 89.761 20.047 95.399 25.881 97.815 30.047 C 103.028 39.038 106.069 51.089 106.881 65.969 C 107.178 71.398 106.881 79.676 106.372 80.185 C 106.308 80.249 105.237 78.189 103.993 75.607 Z"
        fill="#000000"
        stroke-width="12"/>
</svg>
